X: 1
T: The Hustler
R: jig
M: 6/8
L: 1/8
K: Bmin
Bde =fed|Bde =f^fa|Bde =fed|edB dBA|
Bde =fed|Bde =f^fa|Bde =fed|dBA B2A:|
Bdf Bdf|a2f fef|Bdf Bdf|afd e3
Bdf Bdf|a2f fef|Bde =fed|dBA B2A:|

